X:1
T:Chantons pour passer le temps
C:Trad., abc file by Bernard Loffet
L:1/8
Q:500
M:2/2
K:G
z4D4|[G2G,2]G,2G,2G,2|[A2D,2][G2G,2][F2D,2][G2G,2]|[A2D,2]D,2D,2D,2|[G2G,2][A2D,2][B2G,2][c2G,2]|[B2G,2]G,2[A2D,2][G2G,2]|[A2D,2]D,2D,2[B2D,2]|[G2G,2][F2D,2][E2D,2][D2G,2]| \
[G2G,2]G,2G,2G,2|[A2D,2][G2G,2][F2D,2][G2G,2]|[A2D,2]D,2D,2D,2|[G2G,2][A2D,2][B2G,2][c2G,2]|[B2G,2]G,2[A2D,2][G2G,2]|[A2D,2]D,2[B2D,2]D,2|[G2G,2]G,2G,2G,2| \
[B2G,2]G,2[B2G,2]G,2|[B2G,2]G,2G,2G,2|[G2G,2][B2G,2][d2G,2][B2G,2]|[c2D,2][B2D,2][A2D,2]D,2|[A2D,2]D,2[A2D,2]D,2|[A2D,2]D,2D,2[G2G,2]|[F2D,2][G2G,2][A2D,2][B2D,2]| \
[c2D,2][B2D,2][A2D,2][B2D,2]|[G2G,2]G,2G,2[G2G,2]|[A2D,2][G2G,2][F2D,2][G2G,2]|[A2D,2]D,2D,2D,2|[G2G,2][A2D,2][B2G,2][c2D,2]|[B2G,2]G,2[A2D,2][G2G,2]| \
[A2D,2]D,2D,2[B2D,2]|[G2G,2][F2D,2][E2D,2][D2G,2]|[G2G,2]G,2G,2[G2G,2]|[A2D,2][G2G,2][F2D,2][G2G,2]|[A2D,2]D,2D,2D,2|[G2G,2][A2D,2][B2G,2][c2G,2]|[B2G,2]G,2[A2D,2][G2G,2]| \
[A2D,2]D,2[B2D,2]D,2|[G2G,2]G,6| \
K:C
Z:Created with TablEdit http://www.tabledit.com/ by Bernard Loffet
